!!!COM: Corelli, Arcangelo
!!!OPR: Sonata da chiesa
!!!OPS: 3
!!!ONM: 12
!!!OMV: 2
!!!OMD: Allegro
**kern	**harm	**fb	**kern	**kern
*part3	*above	*part3	*part2	*part1
*staff3	*	*	*staff2	*staff1
*I"Violone & Organo	*	*	*I"Violino II	*I"Violino I
*clefF4	*	*	*clefG2	*clefG2
*k[f#c#]	*	*	*k[f#c#]	*k[f#c#]
*b:	*	*	*b:	*b:
*M3/4	*	*	*M3/4	*M3/4
*MM176	*	*	*MM176	*MM176
=1	=1	=1	=1	=1
[2.E	E.I[I{	#	2.r	8r
.	.	.	.	8gg#X
.	.	.	.	8bbL
.	.	.	.	8gg#J
.	.	.	.	8eeL
.	.	.	.	8gg#J
=2	=2	=2	=2	=2
2.E_	.	.	2.r	8bL
.	.	.	.	8eeJ
.	.	.	.	8gg#XL
.	.	.	.	8eeJ
.	.	.	.	8bL
.	.	.	.	8eeJ
=3	=3	=3	=3	=3
2.E_	.	.	2.r	8g#XL
.	.	.	.	8bJ
.	.	.	.	8eeL
.	.	.	.	8bJ
.	.	.	.	8g#L
.	.	.	.	8bJ
=4	=4	=4	=4	=4
2.E_	.	.	2.r	8eL
.	.	.	.	8g#XJ
.	.	.	.	8bL
.	.	.	.	8g#J
.	.	.	.	8eL
.	.	.	.	8g#J
=5	=5	=5	=5	=5
2.E_	.	.	2.r	8BL
.	.	.	.	8eJ
.	.	.	.	8g#XL
.	.	.	.	8eJ
.	.	.	.	8BL
.	.	.	.	8eJ
=6	=6	=6	=6	=6
2.E_	.	.	8r	2.G#X
.	.	.	8gg#X	.
.	.	.	8bbL	.
.	.	.	8gg#J	.
.	.	.	8eeL	.
.	.	.	8gg#J	.
=7	=7	=7	=7	=7
2.E_	.	.	8bL	2.r
.	.	.	8eeJ	.
.	.	.	8gg#XL	.
.	.	.	8eeJ	.
.	.	.	8bL	.
.	.	.	8eeJ	.
=8	=8	=8	=8	=8
2.E_	.	.	8g#XL	2.r
.	.	.	8bJ	.
.	.	.	8eeL	.
.	.	.	8bJ	.
.	.	.	8g#L	.
.	.	.	8bJ	.
=9	=9	=9	=9	=9
2.E_	.	.	8eL	2.r
.	.	.	8g#XJ	.
.	.	.	8bL	.
.	.	.	8g#J	.
.	.	.	8eL	.
.	.	.	8g#J	.
=10	=10	=10	=10	=10
2.E_	.	.	8BL	2.r
.	.	.	8eJ	.
.	.	.	8g#XL	.
.	.	.	8eJ	.
.	.	.	8BL	.
.	.	.	8eJ	.
=11	=11	=11	=11	=11
2.E_	.	.	2.G#X	8r
.	.	.	.	8bb
.	.	.	.	8aaL
.	.	.	.	8gg#XJ
.	.	.	.	8ff#L
.	.	.	.	8aaJ
=12	=12	=12	=12	=12
2.E_	.	.	8r	8gg#XL
.	.	.	8bb	8gg#J
.	.	.	8aaL	8ff#L
.	.	.	8gg#XJ	8eeJ
.	viio	.	8ff#L	8dd#XL
.	.	.	8aaJ	8ff#J
=13	=13	=13	=13	=13
2.E_	I	.	8gg#XL	8eeL
.	.	.	8gg#J	8bbJ
.	.	.	8ff#L	8aaL
.	.	.	8eeJ	8gg#XJ
.	viio	.	8dd#XL	8ff#L
.	.	.	8ff#J	8aaJ
=14	=14	=14	=14	=14
2.E_	I	.	8eeL	8gg#XL
.	.	.	8bbJ	8gg#J
.	.	.	8aaL	8ff#L
.	.	.	8gg#XJ	8eeJ
.	viio	.	8ff#L	8dd#XL
.	.	.	8aaJ	8ff#J
=15	=15	=15	=15	=15
2.E_	I]	.	8gg#XL	8eeL
.	.	.	8gg#J	8eeJ
.	.	.	8ff#L	8dd#XL
.	.	.	8eeJ	8cc#J
.	.	.	8dd#XL	8bL
.	.	.	8cc#J	8aJ
=16	=16	=16	=16	=16
2.E_	.	.	8bL	8g#XL
.	.	.	8eeJ	8cc#J
.	.	.	8dd#XL	8bL
.	.	.	8cc#J	8aJ
.	.	.	8bL	8g#L
.	.	.	8aJ	8f#J
=17	=17	=17	=17	=17
2.E_	.	.	8g#XL	4e
.	.	.	8cc#J	.
.	.	.	8bL	4B
.	.	.	8aJ	.
.	.	.	8g#L	4e
.	.	.	8f#J	.
=18	=18	=18	=18	=18
2.E_	.	.	4e	4g#X
.	.	.	4B	4G#X
.	.	.	4e	4r
=19	=19	=19	=19	=19
2.E_	.	.	4g#X	4r
.	.	.	4G#X	4e
.	.	.	4r	4g#X
=20	=20	=20	=20	=20
2.E_	.	.	4r	4b
.	.	.	4e	4B
.	.	.	4g#X	4r
=21	=21	=21	=21	=21
2.E_	.	.	4b	4r
.	.	.	4B	4g#X
.	.	.	4r	4b
=22	=22	=22	=22	=22
2.E_	.	.	4r	4ee
.	.	.	4g#X	4e
.	.	.	4b	4r
=23	=23	=23	=23	=23
2.E_	.	.	4ee	4r
.	.	.	4e	4b
.	.	.	4r	4ee
=24	=24	=24	=24	=24
2.E_	.	.	4r	4gg#X
.	.	.	4b	4g#X
.	.	.	4ee	4r
=25	=25	=25	=25	=25
2.E_	.	.	4gg#X	4r
.	.	.	4g#X	4ee
.	.	.	4r	4gg#X
=26	=26	=26	=26	=26
2.E_	.	.	4r	4bb
.	.	.	4ee	4b
.	.	.	4gg#X	4r
=27	=27	=27	=27	=27
2.E_	.	.	4bb	4r
.	.	.	4b	4gg#X
.	.	.	4r	4bb
=28	=28	=28	=28	=28
2.E_	.	.	4r	2eee
.	.	.	4gg#X	.
.	.	.	4bb	4r
=29	=29	=29	=29	=29
2.E_	.	.	2eee	8r
.	.	.	.	8bb
.	.	.	.	8gg#XL
.	.	.	.	8eeJ
.	.	.	4r	8bL
.	.	.	.	8g#XJ
=30	=30	=30	=30	=30
2.E_	.	.	8r	2e
.	.	.	8bb	.
.	.	.	8gg#XL	.
.	.	.	8eeJ	.
.	.	.	8bL	4r
.	.	.	8g#XJ	.
=31	=31	=31	=31	=31
2.E_	.	.	2e	8r
.	.	.	.	8gg#X
.	.	.	.	8eeL
.	.	.	.	8bJ
.	.	.	4r	8g#XL
.	.	.	.	8eJ
=32	=32	=32	=32	=32
2.E_	.	.	8r	2B
.	.	.	8gg#X	.
.	.	.	8eeL	.
.	.	.	8bJ	.
.	.	.	8g#XL	4r
.	.	.	8eJ	.
=33	=33	=33	=33	=33
2.E_	.	.	2B	8r
.	.	.	.	8ee
.	.	.	.	8bL
.	.	.	.	8g#XJ
.	.	.	4r	8eL
.	.	.	.	8BJ
=34	=34	=34	=34	=34
2.E]	.	.	8r	2G#X
.	.	.	8ee	.
.	.	.	8bL	.
.	.	.	8g#XJ	.
.	.	.	8eL	4r
.	.	.	8BJ	.
=35	=35	=35	=35	=35
*M6/8	*	*	*M6/8	*M6/8
*MM152	*	*	*MM152	*MM152
[2.E	.	.	4.G#X	8r
.	.	.	.	8bbL
.	.	.	.	8gg#XJ
.	.	.	4r	8eeL
.	.	.	.	8gg#
.	.	.	8r	8eeJ
=36	=36	=36	=36	=36
2.E_	.	.	8r	8bL
.	.	.	8bbL	8gg#X
.	.	.	8gg#XJ	8eeJ
.	.	.	8eeL	8bL
.	.	.	8gg#	8ee
.	.	.	8eeJ	8bJ
=37	=37	=37	=37	=37
2.E_	.	.	8bL	8g#XL
.	.	.	8gg#X	8ee
.	.	.	8eeJ	8bJ
.	.	.	8bL	8g#L
.	.	.	8ee	8b
.	.	.	8bJ	8g#J
=38	=38	=38	=38	=38
2.E_	.	.	8g#XL	8eL
.	.	.	8ee	8gg#X
.	.	.	8bJ	8eeJ
.	.	.	8g#L	8bL
.	.	.	8b	8ee
.	.	.	8g#J	8bJ
=39	=39	=39	=39	=39
2.E_	.	.	8eL	8g#XL
.	.	.	8gg#X	8bb
.	.	.	8eeJ	8gg#XJ
.	.	.	8bL	8eeL
.	.	.	8gg#	8bb
.	.	.	8eeJ	8gg#J
=40	=40	=40	=40	=40
2.E_	.	.	8bL	8eeL
.	.	.	8bb	8gg#X
.	.	.	8gg#XJ	8eeJ
.	.	.	8eeL	8bL
.	.	.	8bb	8gg#
.	.	.	8gg#J	8eeJ
=41	=41	=41	=41	=41
2.E]	.	.	8eeL	8bL
.	.	.	8gg#X	8bb
.	.	.	8eeJ	8gg#XJ
.	.	.	8bL	8eeL
.	.	.	8gg#	8bb
.	.	.	8eeJ	8gg#J
==	==	==	==	==
*-	*-	*-	*-	*-
!!!system-decoration: [{s1,s2},s3]
!!!YEM: CC BY-NC-SA 4.0; CCARH; DCML